X: 287
T: Jiemei erren
%%abc-version 2.0
%%abcx-abcm2ps-target-version 5.9.1 (29 Sep 2008)
%%abc-creator hum2abc beta
%%abcx-conversion-date 2013/10/02 07:52:29
%%abc-edited-by Helmut Schaffrath
%%humdrum-veritas 406434046
%%humdrum-veritas-data 2511149787
%%continueall 1
%%barnumbers 0
L: 1/8
M: 2/4
K: F
f d d c [I:setbarnb 1]| 
f d d c | 
d c G c/ c/ | 
c c/ A/ G c | 
z F d c | 
f c c G | 
c G E G/ G/ | 
C4 | 
A c/ c/ G c | 
E FC2 | 
A c/ c/ G c | 
E FC2 | 
c c/ c/ G c | 
E FC2 | 
A c/ c/ G c | 
E FC2 | 
G/ c/ G/ F/ E F | 
G A c c | 
f d d c | 
f d/ c/ D F | 
G/ F/ DC2 |]  



